img/icon/orc.svg

<svg width="36" height="36" viewBox="0 0 36 36" fill="none" xmlns="http://www.w3.org/2000/svg">
<circle cx="18" cy="18" r="18" fill="#0075FF"/>
<path d="M16.095 20.6842C16.095 20.152 16.2793 19.7018 16.648 19.3333C17.0168 18.9649 17.4674 18.7807 18 18.7807C18.5326 18.7807 18.9832 18.9649 19.352 19.3333C19.7207 19.7018 19.905 20.152 19.905 20.6842C19.905 21.2164 19.7207 21.6667 19.352 22.0351C18.9832 22.4035 18.5326 22.5877 18 22.5877C17.4674 22.5877 17.0168 22.4035 16.648 22.0351C16.2793 21.6667 16.095 21.2164 16.095 20.6842ZM9.61173 23.4474C9.30447 23.8158 8.92551 24 8.47486 24C8.06518 24 7.71695 23.8567 7.43017 23.5702C7.14339 23.2836 7 22.9357 7 22.5263C7 22.1579 7.10242 21.8611 7.30726 21.636L14.7737 11.5965C15.122 11.1257 15.5829 10.7471 16.1564 10.4605C16.73 10.1535 17.3445 10 18 10C18.6145 10 19.1983 10.133 19.7514 10.3991C20.3045 10.6652 20.7551 11.0336 21.1034 11.5044L28.5698 21.4825C28.6927 21.6257 28.7952 21.7895 28.8771 21.9737C28.959 22.1374 29 22.3216 29 22.5263C29 22.9357 28.8566 23.2836 28.5698 23.5702C28.2831 23.8567 27.9348 24 27.5251 24C27.0335 24 26.6443 23.8056 26.3575 23.4167L19.1983 13.8684C19.0549 13.7047 18.8706 13.5307 18.6453 13.3465C18.4404 13.1418 18.2253 13.0395 18 13.0395C17.7747 13.0395 17.5493 13.1418 17.324 13.3465C17.1192 13.5307 16.9553 13.7047 16.8324 13.8684L9.61173 23.4474Z" fill="white"/>
</svg>

<svg width="36" height="36" fill="none" xmlns="http://www.w3.org/2000/svg"><circle cx="18" cy="18" r="18" fill="#0075FF"/><path d="M16.095 20.684c0-.532.184-.982.553-1.35A1.84 1.84 0 0118 18.78c.533 0 .983.184 1.352.552.369.369.553.819.553 1.351s-.184.983-.553 1.351a1.84 1.84 0 01-1.352.553 1.84 1.84 0 01-1.352-.553 1.837 1.837 0 01-.553-1.35zm-6.483 2.763c-.308.369-.686.553-1.137.553-.41 0-.758-.143-1.045-.43A1.42 1.42 0 017 22.526c0-.368.102-.665.307-.89l7.467-10.04c.348-.47.809-.849 1.382-1.136A3.848 3.848 0 0118 10a3.99 3.99 0 011.751.4 3.582 3.582 0 011.352 1.104l7.467 9.979c.123.143.225.306.307.49.082.164.123.349.123.553 0 .41-.143.758-.43 1.044-.287.287-.635.43-1.045.43-.491 0-.88-.194-1.167-.583l-7.16-9.549a4.65 4.65 0 00-.553-.521c-.205-.205-.42-.307-.645-.307-.225 0-.45.102-.676.307a3.749 3.749 0 00-.492.521l-7.22 9.58z" fill="#fff"/></svg>
